X: 157
M: 6/8
L: 1/8
K: G
|:\
|:\
dBd ece | faf dgd | edc BAG | F2G AFD |\
dBd ege | fag fed | egf edc | d3 D3 :|
|:\
ege cAc | faf dBd | edc BAG | F2G AFD |\
ege cAc | faf dBe | dcB AGF | G3 G,3 :|

